X: 170
T: Carroll County Blues
C:Will Narmour
B: canberra pickers and fiddlers
B: old time tunes update
B: tunes
M:2/4
L:1/8
Q: 1/4=100
K:G
V:1 
B/A/B/G/ E<G|B/A/B/G/ E<G|B/A/B/G/ E<G|B/A/B/(d/ d2)|
B/A/B/G/ E<G|B/A/B/G/ E<G|B/A/B/G/ E<G|G [G,/D/]G/E/G/ G|
B/A/B/G/ E<G|B/A/B/G/ E<G|B/A/B/(d/ d2)|[ee>][ef] ed|
B/A/B/G/ E<G|B/A/B/G/ E<G|B/A/B/G/ E<G|G/D/[B,/D/][A,/E/] [B,2G2]|
B/A/B/G/ E<G|B/A/B/G/ E<G|B/A/B/(d/ d2)|B/A/B/G/ E<G|
B/A/B/G/ E<G|G/G/ D/G/E/(G/ G2|G/ g e<g d/|eg e/d/[D/d/]g/|
f/d/f/d/ A/^c/e/g/|f/(d/[d/f/])g/ ed|f/d/f/d/ A/^c/e/g/|
f/(d/[d/f/])g/ ed|g/e/a/(e/ [B/b/]) [Bb]a/|fd e[Bg]||
% abcbook-tune_id 67a7d9eceaee9b6520d3dc73
% abcbook-tune_composer_id 
% abcbook-link-0 https://www.youtube.com/watch?v=zy6qqCassdE
% abcbook-link-title-0 Carroll County Blues // Mandolin // Tristan Scroggins
% abcbook-link-1 https://www.youtube.com/watch?v=bnBXKK-WQYY
% abcbook-link-title-1 Mike Compton &quot;Carroll County Blues&quot;
% abcbook-link-start-at-1 72
% abcbook-boost 0
% abcbook-difficulty 0
% abcbook-tags old time tunes
% abcbook-tablature 
% abcbook-transpose 
% abcbook-tuning GDAD
% abcbook-lastupdated 1739150361511
% abcbook-src-url 
% abcbook-soundfonts 
% abcbook-repeats 1


